icons/baggage-claim.svg

<svg width="24" height="24" viewBox="0 0 24 24" fill="none" xmlns="http://www.w3.org/2000/svg">
<path d="M4 20C4 18.9107 4.91067 18 6 18C7.08933 18 8 18.9107 8 20C8 21.0893 7.08933 22 6 22C4.91067 22 4 21.0893 4 20Z" stroke="black" stroke-width="2" stroke-linecap="round" stroke-linejoin="round"/>
<path d="M13 20C13 18.9107 13.9107 18 15 18C16.0893 18 17 18.9107 17 20C17 21.0893 16.0893 22 15 22C13.9107 22 13 21.0893 13 20Z" stroke="black" stroke-width="2" stroke-linecap="round" stroke-linejoin="round"/>
<path d="M7.5 6.43512L5 6.43512C3.89543 6.43512 3 7.26676 3 8.29263V10.2137C3 11.7525 4.34315 13 6 13H15C16.6569 13 18 11.7525 18 10.2137V8.29263C18 7.26676 17.1046 6.43513 16 6.43513H13.5L7.5 6.43512ZM13.5 6.43513V5.5C13.5 3.84315 12.1569 2.5 10.5 2.5C8.84315 2.5 7.5 3.84315 7.5 5.5V6.43512" stroke="black" stroke-width="2" stroke-linecap="round" stroke-linejoin="round"/>
<path d="M2 17H16C19.3137 17 22 14.3137 22 11V2" stroke="black" stroke-width="2" stroke-linecap="round" stroke-linejoin="round"/>
</svg>

<svg xmlns="http://www.w3.org/2000/svg" width="24" height="24" viewBox="0 0 24 24" fill="none" stroke="currentColor" stroke-width="2" stroke-linecap="round" stroke-linejoin="round">
<path d="M4 20c0-1.09.91-2 2-2s2 .91 2 2-.91 2-2 2-2-.91-2-2m9 0c0-1.09.91-2 2-2s2 .91 2 2-.91 2-2 2-2-.91-2-2M7.5 6.435H5c-1.105 0-2 .832-2 1.858v1.92C3 11.754 4.343 13 6 13h9c1.657 0 3-1.248 3-2.786V8.293c0-1.026-.895-1.858-2-1.858zm6 0V5.5a3 3 0 1 0-6 0v.935"/><path d="M2 17h14a6 6 0 0 0 6-6V2"/>
</svg>
